_inc/logos/o2em.svg

<!-- Created by ERK --><svg xmlns="http://www.w3.org/2000/svg" viewBox="0 0 553 235"><g fill="#e20000"><path d="M383.64 110.79a1 1 0 0 0 .9-1.47l-14.09-26.98a1.01.98 45.3 0 1-.01-.93l6.9-13.9q.25-.5.56-.03 1.12 1.71 2.06 3.51 16.63 31.86 33.09 63.91a.66.66 0 0 1-.6.96l-14.09-.15a.76.76 0 0 1-.68-.42l-5.16-10.31a.77.77 0 0 0-.67-.42l-18.84-.07a.35.35 0 0 1-.31-.51l6.49-12.77a.88.86-75.7 0 1 .79-.48zm25.42-5.26c-1.47-18.72 11.63-34.85 30.11-37.5a.57.57 0 0 1 .65.56l.07 12.51a.88.87 82.1 0 1-.63.84c-22.15 6.23-21.78 34.97.11 41.52a.71.71 0 0 1 .51.68l-.1 12.82a.58.57-83.8 0 1-.69.56c-16.44-3.36-28.69-14.82-30.03-31.99m39.27-24.23c-1-2.72-.07-10.26.06-12.95a.43.42 5.5 0 1 .49-.4q13.59 2.01 22.34 12.59a.6.59-39.3 0 1-.09.84l-9.92 8.03a.53.53 0 0 1-.75-.08q-4.54-5.52-11.39-7.37a1.08 1.08 0 0 1-.74-.66M279.32 95.57c-7.69-19.35-34.53-18.75-40.14 2.37a.72.72 0 0 1-.7.54l-11.95.06a1.46 1.46 0 0 1-1.42-1.85c4.86-17.84 17.57-29.47 36.29-28.75 16.54.64 28.21 12.03 32.49 27.87q.74 2.71-2.07 2.71l-10.67-.01a.76.76 0 0 1-.68-.42q-.63-1.22-1.15-2.52M59.1 69.6c8.7-.21 17.44-.42 26.1.04a.58.57-88.4 0 1 .54.58l.03 64.92a.66.66 0 0 1-.67.66l-12.24-.05a.64.64 0 0 1-.64-.64l.04-59.62a.61.61 0 0 0-1.16-.28l-19.77 38.48a.35.35 0 0 1-.63 0l-7.21-14.12a.89.89 0 0 1 0-.8L58.3 70.11a.94.94 0 0 1 .8-.51"/><rect width="13.52" height="66.28" x="169.24" y="69.49" rx=".26"/><path d="m18.44 69.76 27.74 53.55a.42.42 0 0 1 0 .38l-7.3 14.21a.42.42 0 0 1-.74 0L3.23 70.1a.42.42 0 0 1 .37-.61l14.47.04a.42.42 0 0 1 .37.23m80.11 66.01q-.93 0-.44-.79.3-.48.3-1.48-.07-31.71-.25-63.43a.57.57 0 0 1 .57-.57h13a.42.41 6.1 0 1 .41.5c-.09.42-.35 1.05-.35 1.42q-.14 31.95.06 63.89a.49.49 0 0 1-.49.49zm22.11-13.63c7.47.61 15-.31 20.42-5.75 7.31-7.34 7.43-19.1.71-26.84-5.2-6-13.13-6.59-21.09-6.33a.53.53 0 0 1-.55-.54l.13-12.33a.66.65-2.9 0 1 .59-.65c10.28-1.06 20.13 1.05 28.05 7.88 11.78 10.14 15.11 26.8 7.63 40.66q-10.62 19.68-35.71 17.32a.62.62 0 0 1-.57-.62l-.1-12.34a.46.45-87.7 0 1 .49-.46"/><rect width="26" height="13.76" x="191.49" y="69.49" rx=".82"/><rect width="14" height="66.24" x="301.25" y="69.51" rx=".26"/><path d="M337.6 90.43c.98-8.23-8.26-7.32-13.34-7.28a.5.5 0 0 1-.51-.5V70.49a.97.97 0 0 1 .93-.97c5.56-.23 12.03.01 16.78 2.65 13.17 7.3 13.22 26.71.34 34.51-4.76 2.88-11.89 3.08-17.54 2.99a.51.5.6 0 1-.5-.5l-.02-12.39a1.09 1.09 0 0 1 1.18-1.09c4.3.33 11.98.6 12.68-5.26M508 92.78V73.22a.47.47 0 0 1 .47-.47h13.06a.47.47 0 0 1 .47.47v19.56a.47.47 0 0 0 .47.47h19.56a.47.47 0 0 1 .47.47v13.31a.47.47 0 0 1-.47.47h-19.56a.47.47 0 0 0-.47.47v19.31a.47.47 0 0 1-.47.47h-13.06a.47.47 0 0 1-.47-.47v-19.31a.47.47 0 0 0-.47-.47h-19.56a.47.47 0 0 1-.47-.47V93.72a.47.47 0 0 1 .47-.47h19.56a.47.47 0 0 0 .47-.47m-142.95-.97a.5.5 0 0 1 .89 0l6.97 13.71a.93.91-45.7 0 1 0 .85q-6.97 13.29-13.71 26.63-.63 1.24-1.39 2.38a.98.98 0 0 1-.82.44l-14.02-.01a.36.36 0 0 1-.32-.52z"/><rect width="26" height="13.82" x="-13" y="-6.91" rx=".26" transform="rotate(-.2 29512.144 -58533.545)"/><path d="M239.4 107.83c2.36 11.53 14.56 17.98 25.45 15.27 7.61-1.89 12.97-8 15.35-15.37a.68.68 0 0 1 .65-.48h12.59a.44.44 0 0 1 .44.48c-.82 9.5-6.81 18.12-14.12 23.29-21.18 14.98-50.49 2.4-54.74-22.9a.81.8 85.8 0 1 .8-.94l12.92.1a.69.69 0 0 1 .66.55m209.32 15.6c5.57-1.43 8.19-3.93 11.88-7.13a.69.69 0 0 1 .86-.03l9.86 7.52a.52.51 38.6 0 1 .09.74q-8.83 10.85-22.74 13.05a.36.36 0 0 1-.42-.35v-13.19a.63.62 82.9 0 1 .47-.61"/><rect width="26.02" height="13.5" x="-13.01" y="-6.75" rx=".54" transform="rotate(-.1 74008.047 -117093.885)"/><path d="M225.89 171.37c-10.71 6.87-12.31 22.31-4.23 31.18 7.46 8.18 19.97 9.64 29.03 2.87q1.82-1.36 2.87-1.31 7.48.37 14.81-.07a.41.41 0 0 1 .37.63c-1.98 3.14-4.07 6.21-6.69 8.73-16.24 15.62-43.27 12.63-54.56-7.33-11.27-19.93-1.19-45.54 21.46-51.1q18.69-4.58 33.3 9.01a.6.6 0 0 1 0 .88l-9.38 8.67a.38.37 42.4 0 1-.48.02q-13.43-10.58-26.5-2.18m167.28 12.58c2.81-21.75 25.01-35.11 45.62-28.24 11.99 4 21.29 14.68 23.27 27.9a.78.78 0 0 1-.77.89h-12.48a.66.66 0 0 1-.63-.47c-6.24-21.78-35.33-22.2-41.03-.09a.74.74 0 0 1-.72.56h-12.78a.49.48-86.3 0 1-.48-.55m75.4-2.94c5.36-20.02 24.73-31.82 44.86-25.38 12.01 3.84 22.08 14.84 23.65 28.36a.42.41 86.3 0 1-.41.47l-12.83.13a.77.76 80.8 0 1-.74-.54c-6.52-21.83-34.66-22.28-41.07-.01a.65.65 0 0 1-.63.48l-12.51.04a.53.53 0 0 1-.52-.42q-.29-1.3.2-3.13M282.1 155.5h46.77a.32.32 0 0 1 .3.43l-4.94 13.1a.32.32 0 0 1-.3.21l-41.82.02a.32.32 0 0 1-.32-.32l-.01-13.12a.32.32 0 0 1 .32-.32m86.87 5.32c1.12-1.03 2.3-2.65 3.67-3.78a.37.37 0 0 1 .61.29v30.17a.75.75 0 0 0 .75.75h10.15a.65.64.4 0 1 .65.65l-.04 12.25a.61.61 0 0 1-.61.6H374a.75.75 0 0 0-.75.75v19.75a.5.5 0 0 1-.5.5h-12.87a.63.63 0 0 1-.63-.63l-.03-51.19a1.1 1.08-23.3 0 1 .31-.76q4.53-4.81 9.44-9.35m-63.9 19.94c.46-1.33 1.08-1.26 1.2-2.9a.43.43 0 0 1 .43-.4l13.07-.01a.92.92 0 0 1 .86 1.23q-7.32 20.58-14.57 40.8-.31.86-.42 1.79a.64.63-86.4 0 1-.63.56l-13.98-.07a.47.47 0 0 1-.43-.63q7.43-20.14 14.47-40.37"/><rect width="33.98" height="13.52" x="238.23" y="182.25" rx=".26"/><path d="M327.36 201.23c4.16-4.22 8.64-8.52 13.03-12.65a1.13 1.11 22.4 0 1 .74-.3l9.5-.14a.43.42-87.6 0 1 .43.47q-.68 6.32-.1 12.64a.47.46-3.4 0 1-.46.51l-22.89.05a.34.34 0 0 1-.25-.58m134.6-7.25c-2.54 20.59-24.05 33.45-43.19 28.33-13.34-3.57-22.52-13.89-25.62-27.38a1.39 1.39 0 0 1 1.35-1.7l12.2.03a.6.6 0 0 1 .58.46c4.92 21.52 34.65 21.04 40.73 0a.61.6 7.1 0 1 .57-.44l12.65-.11a.73.72 3.1 0 1 .73.81M472.51 206c-1.67-2.76-4.78-8.83-4.2-12.29a.64.64 0 0 1 .64-.54l12.49.1a.78.77-8.7 0 1 .74.54c6.8 20.86 34.83 21.62 40.68.01a.76.76 0 0 1 .73-.56l13.1-.04a.44.44 0 0 1 .43.52c-5.25 32.52-47.3 40.84-64.61 12.26"/></g><g fill="#f4f4f4"><path d="M178.07 45.29a.65.64-85.9 0 1-.55-.64l-.03-7.83a.6.59-82 0 1 .76-.58c3.62 1.05 11.87 2.35 14.61-1.26a1.82 1.82 0 0 0-.78-2.79c-6.93-2.73-15.48-3.82-15.2-13.46.34-12.16 11.9-14.17 21.64-11.57a.65.65 0 0 1 .48.63l.01 6.95a1.14 1.14 0 0 1-1.5 1.08q-5.04-1.68-9.91.32-2.25.92-1.03 3.02c1.73 3.01 9.92 3.76 13.02 6.6 5.32 4.9 3.7 14.7-2.32 18.25-4.94 2.9-13.25 2.22-19.2 1.28"/><rect width="10" height="38" x="80" y="7.25" rx=".64"/><rect width="10.26" height="37.98" x="123.5" y="7.25" rx=".75"/><path d="m151.08 37.9-.02 6.79a.57.56 0 0 1-.57.56h-7.87a.63.62 90 0 1-.62-.63V7.99a.62.61 89.5 0 1 .6-.62q13.52-.35 17.63-.1c17.68 1.06 16.37 28.94-2.18 29.6q-3.21.11-6.4.41a.63.63 0 0 0-.57.62m.75-9.16c13.32 3.21 14.28-16.5-.07-13.61a.63.62-5.7 0 0-.51.61V28a.76.76 0 0 0 .58.74M50.25 30.26v14.49a.51.51 0 0 1-.51.51l-8.75-.04a.51.51 0 0 1-.51-.51l.03-36.45a.51.51 0 0 1 .51-.51h8.72a.51.51 0 0 1 .51.51v13.48a.51.51 0 0 0 .51.51h10.73a.51.51 0 0 0 .51-.51V8.2a.51.51 0 0 1 .52-.51l8.73.08a.51.51 0 0 1 .5.51v36.41a.51.51 0 0 1-.51.51l-8.73.07a.51.51 0 0 1-.51-.51v-14.5a.51.51 0 0 0-.51-.51H50.76a.51.51 0 0 0-.51.51m57.95 6.99h9.11a.7.7 0 0 1 .7.7l-.03 6.61a.7.7 0 0 1-.7.7l-18.83-.03a.7.7 0 0 1-.7-.7V8.24a.7.7 0 0 1 .69-.69l8.35-.06a.7.7 0 0 1 .71.7v28.36a.7.7 0 0 0 .7.7m-94.22.83-.02 6.6a.57.57 0 0 1-.57.57H5.48a.71.7 0 0 1-.71-.7L4.76 8.37a.5.5 0 0 1 .49-.5q7.44-.15 14.77-.16c6.7 0 12.19 1.07 14.4 7.6 3.59 10.6-1.51 20.96-13.05 21.73q-3.46.23-6.88.49a.55.55 0 0 0-.51.55m.24-9.07c14.03 3.53 15.03-16.4.35-13.91a.68.68 0 0 0-.57.67v12.95a.3.3 0 0 0 .22.29"/></g></svg>

<?xml version="1.0" encoding="UTF-8" standalone="no"?>
<!DOCTYPE svg PUBLIC "-//W3C//DTD SVG 1.1//EN" "http://www.w3.org/Graphics/SVG/1.1/DTD/svg11.dtd">
<svg xmlns="http://www.w3.org/2000/svg" version="1.1" viewBox="0 0 553 235">
<g fill="#e20000">
<path d="
  M 383.64 110.79
  A 1.00 1.00 0.0 0 0 384.54 109.32
  L 370.45 82.34
  A 1.01 0.98 45.3 0 1 370.44 81.41
  L 377.34 67.51
  Q 377.59 67.01 377.90 67.48
  Q 379.02 69.19 379.96 70.99
  Q 396.59 102.85 413.05 134.90
  A 0.66 0.66 0.0 0 1 412.45 135.86
  L 398.36 135.71
  A 0.76 0.76 0.0 0 1 397.68 135.29
  L 392.52 124.98
  A 0.77 0.77 0.0 0 0 391.85 124.56
  L 373.01 124.49
  A 0.35 0.35 0.0 0 1 372.70 123.98
  L 379.19 111.21
  A 0.88 0.86 -75.7 0 1 379.98 110.73
  L 383.64 110.79
  Z"
/>
<path d="
  M 409.06 105.53
  C 407.59 86.81 420.69 70.68 439.17 68.03
  A 0.57 0.57 0.0 0 1 439.82 68.59
  L 439.89 81.10
  A 0.88 0.87 82.1 0 1 439.26 81.94
  C 417.11 88.17 417.48 116.91 439.37 123.46
  A 0.71 0.71 0.0 0 1 439.88 124.14
  L 439.78 136.96
  A 0.58 0.57 -83.8 0 1 439.09 137.52
  C 422.65 134.16 410.40 122.70 409.06 105.53
  Z"
/>
<path d="
  M 448.33 81.30
  C 447.33 78.58 448.26 71.04 448.39 68.35
  A 0.43 0.42 5.5 0 1 448.88 67.95
  Q 462.47 69.96 471.22 80.54
  A 0.60 0.59 -39.3 0 1 471.13 81.38
  L 461.21 89.41
  A 0.53 0.53 0.0 0 1 460.46 89.33
  Q 455.92 83.81 449.07 81.96
  A 1.08 1.08 0.0 0 1 448.33 81.30
  Z"
/>
<path d="
  M 279.32 95.57
  C 271.63 76.22 244.79 76.82 239.18 97.94
  A 0.72 0.72 0.0 0 1 238.48 98.48
  L 226.53 98.54
  A 1.46 1.46 0.0 0 1 225.11 96.69
  C 229.97 78.85 242.68 67.22 261.40 67.94
  C 277.94 68.58 289.61 79.97 293.89 95.81
  Q 294.63 98.52 291.82 98.52
  L 281.15 98.51
  A 0.76 0.76 0.0 0 1 280.47 98.09
  Q 279.84 96.87 279.32 95.57
  Z"
/>
<path d="
  M 59.10 69.60
  C 67.80 69.39 76.54 69.18 85.20 69.64
  A 0.58 0.57 -88.4 0 1 85.74 70.22
  L 85.77 135.14
  A 0.66 0.66 0.0 0 1 85.10 135.80
  L 72.86 135.75
  A 0.64 0.64 0.0 0 1 72.22 135.11
  L 72.26 75.49
  A 0.61 0.61 0.0 0 0 71.10 75.21
  L 51.33 113.69
  A 0.35 0.35 0.0 0 1 50.70 113.69
  L 43.49 99.57
  A 0.89 0.89 0.0 0 1 43.49 98.77
  L 58.30 70.11
  A 0.94 0.94 0.0 0 1 59.10 69.60
  Z"
/>
<rect x="169.24" y="69.49" width="13.52" height="66.28" rx="0.26"/>
<path d="
  M 18.44 69.76
  L 46.18 123.31
  A 0.42 0.42 0.0 0 1 46.18 123.69
  L 38.88 137.90
  A 0.42 0.42 0.0 0 1 38.14 137.90
  L 3.23 70.10
  A 0.42 0.42 0.0 0 1 3.60 69.49
  L 18.07 69.53
  A 0.42 0.42 0.0 0 1 18.44 69.76
  Z"
/>
<path d="
  M 98.55 135.77
  Q 97.62 135.77 98.11 134.98
  Q 98.41 134.50 98.41 133.50
  Q 98.34 101.79 98.16 70.07
  A 0.57 0.57 0.0 0 1 98.73 69.50
  L 111.73 69.50
  A 0.42 0.41 6.1 0 1 112.14 70.00
  C 112.05 70.42 111.79 71.05 111.79 71.42
  Q 111.65 103.37 111.85 135.31
  A 0.49 0.49 0.0 0 1 111.36 135.80
  L 98.55 135.77
  Z"
/>
<path d="
  M 120.66 122.14
  C 128.13 122.75 135.66 121.83 141.08 116.39
  C 148.39 109.05 148.51 97.29 141.79 89.55
  C 136.59 83.55 128.66 82.96 120.70 83.22
  A 0.53 0.53 0.0 0 1 120.15 82.68
  L 120.28 70.35
  A 0.66 0.65 -2.9 0 1 120.87 69.70
  C 131.15 68.64 141.00 70.75 148.92 77.58
  C 160.70 87.72 164.03 104.38 156.55 118.24
  Q 145.93 137.92 120.84 135.56
  A 0.62 0.62 0.0 0 1 120.27 134.94
  L 120.17 122.60
  A 0.46 0.45 -87.7 0 1 120.66 122.14
  Z"
/>
<rect x="191.49" y="69.49" width="26.00" height="13.76" rx="0.82"/>
<rect x="301.25" y="69.51" width="14.00" height="66.24" rx="0.26"/>
<path d="
  M 337.60 90.43
  C 338.58 82.20 329.34 83.11 324.26 83.15
  A 0.50 0.50 0.0 0 1 323.75 82.65
  L 323.75 70.49
  A 0.97 0.97 0.0 0 1 324.68 69.52
  C 330.24 69.29 336.71 69.53 341.46 72.17
  C 354.63 79.47 354.68 98.88 341.80 106.68
  C 337.04 109.56 329.91 109.76 324.26 109.67
  A 0.51 0.50 0.6 0 1 323.76 109.17
  L 323.74 96.78
  A 1.09 1.09 0.0 0 1 324.92 95.69
  C 329.22 96.02 336.90 96.29 337.60 90.43
  Z"
/>
<path d="
  M 508.00 92.78
  L 508.00 73.22
  A 0.47 0.47 0.0 0 1 508.47 72.75
  L 521.53 72.75
  A 0.47 0.47 0.0 0 1 522.00 73.22
  L 522.00 92.78
  A 0.47 0.47 0.0 0 0 522.47 93.25
  L 542.03 93.25
  A 0.47 0.47 0.0 0 1 542.50 93.72
  L 542.50 107.03
  A 0.47 0.47 0.0 0 1 542.03 107.50
  L 522.47 107.50
  A 0.47 0.47 0.0 0 0 522.00 107.97
  L 522.00 127.28
  A 0.47 0.47 0.0 0 1 521.53 127.75
  L 508.47 127.75
  A 0.47 0.47 0.0 0 1 508.00 127.28
  L 508.00 107.97
  A 0.47 0.47 0.0 0 0 507.53 107.50
  L 487.97 107.50
  A 0.47 0.47 0.0 0 1 487.50 107.03
  L 487.50 93.72
  A 0.47 0.47 0.0 0 1 487.97 93.25
  L 507.53 93.25
  A 0.47 0.47 0.0 0 0 508.00 92.78
  Z"
/>
<path d="
  M 365.05 91.81
  A 0.50 0.50 0.0 0 1 365.94 91.81
  L 372.91 105.52
  A 0.93 0.91 -45.7 0 1 372.91 106.37
  Q 365.94 119.66 359.20 133.00
  Q 358.57 134.24 357.81 135.38
  A 0.98 0.98 0.0 0 1 356.99 135.82
  L 342.97 135.81
  A 0.36 0.36 0.0 0 1 342.65 135.29
  L 365.05 91.81
  Z"
/>
<rect x="-13.00" y="-6.91" transform="translate(204.50,102.66) rotate(-0.2)" width="26.00" height="13.82" rx="0.26"/>
<path d="
  M 239.40 107.83
  C 241.76 119.36 253.96 125.81 264.85 123.10
  C 272.46 121.21 277.82 115.10 280.20 107.73
  A 0.68 0.68 0.0 0 1 280.85 107.25
  L 293.44 107.25
  A 0.44 0.44 0.0 0 1 293.88 107.73
  C 293.06 117.23 287.07 125.85 279.76 131.02
  C 258.58 146.00 229.27 133.42 225.02 108.12
  A 0.81 0.80 85.8 0 1 225.82 107.18
  L 238.74 107.28
  A 0.69 0.69 0.0 0 1 239.40 107.83
  Z"
/>
<path d="
  M 448.72 123.43
  C 454.29 122.00 456.91 119.50 460.60 116.30
  A 0.69 0.69 0.0 0 1 461.46 116.27
  L 471.32 123.79
  A 0.52 0.51 38.6 0 1 471.41 124.53
  Q 462.58 135.38 448.67 137.58
  A 0.36 0.36 0.0 0 1 448.25 137.23
  L 448.25 124.04
  A 0.63 0.62 82.9 0 1 448.72 123.43
  Z"
/>
<rect x="-13.01" y="-6.75" transform="translate(204.48,128.99) rotate(-0.1)" width="26.02" height="13.50" rx="0.54"/>
<path d="
  M 225.89 171.37
  C 215.18 178.24 213.58 193.68 221.66 202.55
  C 229.12 210.73 241.63 212.19 250.69 205.42
  Q 252.51 204.06 253.56 204.11
  Q 261.04 204.48 268.37 204.04
  A 0.41 0.41 0.0 0 1 268.74 204.67
  C 266.76 207.81 264.67 210.88 262.05 213.40
  C 245.81 229.02 218.78 226.03 207.49 206.07
  C 196.22 186.14 206.30 160.53 228.95 154.97
  Q 247.64 150.39 262.25 163.98
  A 0.60 0.60 0.0 0 1 262.25 164.86
  L 252.87 173.53
  A 0.38 0.37 42.4 0 1 252.39 173.55
  Q 238.96 162.97 225.89 171.37
  Z"
/>
<path d="
  M 393.17 183.95
  C 395.98 162.20 418.18 148.84 438.79 155.71
  C 450.78 159.71 460.08 170.39 462.06 183.61
  A 0.78 0.78 0.0 0 1 461.29 184.50
  L 448.81 184.50
  A 0.66 0.66 0.0 0 1 448.18 184.03
  C 441.94 162.25 412.85 161.83 407.15 183.94
  A 0.74 0.74 0.0 0 1 406.43 184.50
  L 393.65 184.50
  A 0.49 0.48 -86.3 0 1 393.17 183.95
  Z"
/>
<path d="
  M 468.57 181.01
  C 473.93 160.99 493.30 149.19 513.43 155.63
  C 525.44 159.47 535.51 170.47 537.08 183.99
  A 0.42 0.41 86.3 0 1 536.67 184.46
  L 523.84 184.59
  A 0.77 0.76 80.8 0 1 523.10 184.05
  C 516.58 162.22 488.44 161.77 482.03 184.04
  A 0.65 0.65 0.0 0 1 481.40 184.52
  L 468.89 184.56
  A 0.53 0.53 0.0 0 1 468.37 184.14
  Q 468.08 182.84 468.57 181.01
  Z"
/>
<path d="
  M 282.10 155.50
  L 328.87 155.50
  A 0.32 0.32 0.0 0 1 329.17 155.93
  L 324.23 169.03
  A 0.32 0.32 0.0 0 1 323.93 169.24
  L 282.11 169.26
  A 0.32 0.32 0.0 0 1 281.79 168.94
  L 281.78 155.82
  A 0.32 0.32 0.0 0 1 282.10 155.50
  Z"
/>
<path d="
  M 368.97 160.82
  C 370.09 159.79 371.27 158.17 372.64 157.04
  A 0.37 0.37 0.0 0 1 373.25 157.33
  L 373.25 187.50
  A 0.75 0.75 0.0 0 0 374.00 188.25
  L 384.15 188.25
  A 0.65 0.64 0.4 0 1 384.80 188.90
  L 384.76 201.15
  A 0.61 0.61 0.0 0 1 384.15 201.75
  L 374.00 201.75
  A 0.75 0.75 0.0 0 0 373.25 202.50
  L 373.25 222.25
  A 0.50 0.50 0.0 0 1 372.75 222.75
  L 359.88 222.75
  A 0.63 0.63 0.0 0 1 359.25 222.12
  L 359.22 170.93
  A 1.10 1.08 -23.3 0 1 359.53 170.17
  Q 364.06 165.36 368.97 160.82
  Z"
/>
<path d="
  M 305.07 180.76
  C 305.53 179.43 306.15 179.50 306.27 177.86
  A 0.43 0.43 0.0 0 1 306.70 177.46
  L 319.77 177.45
  A 0.92 0.92 0.0 0 1 320.63 178.68
  Q 313.31 199.26 306.06 219.48
  Q 305.75 220.34 305.64 221.27
  A 0.64 0.63 -86.4 0 1 305.01 221.83
  L 291.03 221.76
  A 0.47 0.47 0.0 0 1 290.60 221.13
  Q 298.03 200.99 305.07 180.76
  Z"
/>
<rect x="238.23" y="182.25" width="33.98" height="13.52" rx="0.26"/>
<path d="
  M 327.36 201.23
  C 331.52 197.01 336.00 192.71 340.39 188.58
  A 1.13 1.11 22.4 0 1 341.13 188.28
  L 350.63 188.14
  A 0.43 0.42 -87.6 0 1 351.06 188.61
  Q 350.38 194.93 350.96 201.25
  A 0.47 0.46 -3.4 0 1 350.50 201.76
  L 327.61 201.81
  A 0.34 0.34 0.0 0 1 327.36 201.23
  Z"
/>
<path d="
  M 461.96 193.98
  C 459.42 214.57 437.91 227.43 418.77 222.31
  C 405.43 218.74 396.25 208.42 393.15 194.93
  A 1.39 1.39 0.0 0 1 394.50 193.23
  L 406.70 193.26
  A 0.60 0.60 0.0 0 1 407.28 193.72
  C 412.20 215.24 441.93 214.76 448.01 193.72
  A 0.61 0.60 7.1 0 1 448.58 193.28
  L 461.23 193.17
  A 0.73 0.72 3.1 0 1 461.96 193.98
  Z"
/>
<path d="
  M 472.51 206.00
  C 470.84 203.24 467.73 197.17 468.31 193.71
  A 0.64 0.64 0.0 0 1 468.95 193.17
  L 481.44 193.27
  A 0.78 0.77 -8.7 0 1 482.18 193.81
  C 488.98 214.67 517.01 215.43 522.86 193.82
  A 0.76 0.76 0.0 0 1 523.59 193.26
  L 536.69 193.22
  A 0.44 0.44 0.0 0 1 537.12 193.74
  C 531.87 226.26 489.82 234.58 472.51 206.00
  Z"
/>
</g>
<g fill="#f4f4f4">
<path d="
  M 178.07 45.29
  A 0.65 0.64 -85.9 0 1 177.52 44.65
  L 177.49 36.82
  A 0.60 0.59 -82.0 0 1 178.25 36.24
  C 181.87 37.29 190.12 38.59 192.86 34.98
  A 1.82 1.82 0.0 0 0 192.08 32.19
  C 185.15 29.46 176.60 28.37 176.88 18.73
  C 177.22 6.57 188.78 4.56 198.52 7.16
  A 0.65 0.65 0.0 0 1 199.00 7.79
  L 199.01 14.74
  A 1.14 1.14 0.0 0 1 197.51 15.82
  Q 192.47 14.14 187.60 16.14
  Q 185.35 17.06 186.57 19.16
  C 188.30 22.17 196.49 22.92 199.59 25.76
  C 204.91 30.66 203.29 40.46 197.27 44.01
  C 192.33 46.91 184.02 46.23 178.07 45.29
  Z"
/>
<rect x="80.00" y="7.25" width="10.00" height="38.00" rx="0.64"/>
<rect x="123.50" y="7.25" width="10.26" height="37.98" rx="0.75"/>
<path d="
  M 151.08 37.90
  L 151.06 44.69
  A 0.57 0.56 -0.0 0 1 150.49 45.25
  L 142.62 45.25
  A 0.63 0.62 90.0 0 1 142.00 44.62
  L 142.00 7.99
  A 0.62 0.61 89.5 0 1 142.60 7.37
  Q 156.12 7.02 160.23 7.27
  C 177.91 8.33 176.60 36.21 158.05 36.87
  Q 154.84 36.98 151.65 37.28
  A 0.63 0.63 0.0 0 0 151.08 37.90
  Z
  M 151.83 28.74
  C 165.15 31.95 166.11 12.24 151.76 15.13
  A 0.63 0.62 -5.7 0 0 151.25 15.74
  L 151.25 28.00
  A 0.76 0.76 0.0 0 0 151.83 28.74
  Z"
/>
<path d="
  M 50.25 30.26
  L 50.25 44.75
  A 0.51 0.51 0.0 0 1 49.74 45.26
  L 40.99 45.22
  A 0.51 0.51 0.0 0 1 40.48 44.71
  L 40.51 8.26
  A 0.51 0.51 0.0 0 1 41.02 7.75
  L 49.74 7.75
  A 0.51 0.51 0.0 0 1 50.25 8.26
  L 50.25 21.74
  A 0.51 0.51 0.0 0 0 50.76 22.25
  L 61.49 22.25
  A 0.51 0.51 0.0 0 0 62.00 21.74
  L 62.00 8.20
  A 0.51 0.51 0.0 0 1 62.52 7.69
  L 71.25 7.77
  A 0.51 0.51 0.0 0 1 71.75 8.28
  L 71.75 44.69
  A 0.51 0.51 0.0 0 1 71.24 45.20
  L 62.51 45.27
  A 0.51 0.51 0.0 0 1 62.00 44.76
  L 62.00 30.26
  A 0.51 0.51 0.0 0 0 61.49 29.75
  L 50.76 29.75
  A 0.51 0.51 0.0 0 0 50.25 30.26
  Z"
/>
<path d="
  M 108.20 37.25
  L 117.31 37.25
  A 0.70 0.70 0.0 0 1 118.01 37.95
  L 117.98 44.56
  A 0.70 0.70 0.0 0 1 117.28 45.26
  L 98.45 45.23
  A 0.70 0.70 0.0 0 1 97.75 44.53
  L 97.75 8.24
  A 0.70 0.70 0.0 0 1 98.44 7.55
  L 106.79 7.49
  A 0.70 0.70 0.0 0 1 107.50 8.19
  L 107.50 36.55
  A 0.70 0.70 0.0 0 0 108.20 37.25
  Z"
/>
<path d="
  M 13.98 38.08
  L 13.96 44.68
  A 0.57 0.57 0.0 0 1 13.39 45.25
  L 5.48 45.25
  A 0.71 0.70 0.0 0 1 4.77 44.55
  L 4.76 8.37
  A 0.50 0.50 0.0 0 1 5.25 7.87
  Q 12.69 7.72 20.02 7.71
  C 26.72 7.71 32.21 8.78 34.42 15.31
  C 38.01 25.91 32.91 36.27 21.37 37.04
  Q 17.91 37.27 14.49 37.53
  A 0.55 0.55 0.0 0 0 13.98 38.08
  Z
  M 14.22 29.01
  C 28.25 32.54 29.25 12.61 14.57 15.10
  A 0.68 0.68 0.0 0 0 14.00 15.77
  L 14.00 28.72
  A 0.30 0.30 0.0 0 0 14.22 29.01
  Z"
/>
</g>
</svg>
